X:292
T:Farewell to the Troubles of the World
T:Sl\'an agus Beannacht le Buairibh a' tSaoil
T:Farewell to My Troubles
R:jig
Z:id:hn-jig-292
M:6/8
K:D
de^c dcA|GFG AFD|FEF GFD|FGA =c2A|
de^c dcA|GFG AFD|~F3 GAG|FDD D3:|
|:FED FGA|=cdB cAG|Afe de^c|AB^c d2=c|
~B3 d=cA|GFG AFD|~F3 GAG|FDD D3:|

